icon/lg/whatwg.svg

<?xml version="1.0" encoding="UTF-8" standalone="no"?>
<svg viewBox="0 0 256 256" version="1.1" xmlns="http://www.w3.org/2000/svg" xmlns:xlink="http://www.w3.org/1999/xlink" preserveAspectRatio="xMidYMid" height="1em" width="1em">
  <g>
    <circle fill="#FFFFFF" cx="128" cy="128" r="115.2"/>
    <path d="M128,256 C198.692448,256 256,198.692448 256,128 C256,57.307552 198.692448,0 128,0 C57.307552,0 0,57.307552 0,128 C0,198.692448 57.307552,256 128,256 L128,256 Z M128,230.4 C71.4460416,230.4 25.6,184.553958 25.6,128 C25.6,71.4460416 71.4460416,25.6 128,25.6 C184.553958,25.6 230.4,71.4460416 230.4,128 C230.4,184.553958 184.553958,230.4 128,230.4 L128,230.4 Z" fill="#3C790A"/>
    <path d="M97.28,97.28 C97.28,66.56 158.72,58.88 156.16,92.16 C156.16,115.2 115.2,125.44 115.2,151.04 L115.2,168.96 L140.8,168.96 L140.8,158.72 C140.8,135.68 184.32,128 184.32,89.6 C179.2,33.28 69.12,33.28 69.12,97.28 L97.28,97.28 Z M115.2,179.2 L140.8,179.2 L140.8,204.8 L115.2,204.8 L115.2,179.2 Z" fill="#3C790A"/>
  </g>
</svg>

<svg width="256" height="256" xmlns="http://www.w3.org/2000/svg" preserveAspectRatio="xMidYMid"><circle fill="#FFF" cx="128" cy="128" r="115.2"/><path d="M128 256c70.692 0 128-57.308 128-128C256 57.308 198.692 0 128 0 57.308 0 0 57.308 0 128c0 70.692 57.308 128 128 128Zm0-25.6c-56.554 0-102.4-45.846-102.4-102.4C25.6 71.446 71.446 25.6 128 25.6c56.554 0 102.4 45.846 102.4 102.4 0 56.554-45.846 102.4-102.4 102.4Z" fill="#3C790A"/><path d="M97.28 97.28c0-30.72 61.44-38.4 58.88-5.12 0 23.04-40.96 33.28-40.96 58.88v17.92h25.6v-10.24c0-23.04 43.52-30.72 43.52-69.12-5.12-56.32-115.2-56.32-115.2 7.68h28.16Zm17.92 81.92h25.6v25.6h-25.6v-25.6Z" fill="#3C790A"/></svg>
